X:1
T:Jean Mouton (ca. 1459-1522)
T:Ave Maria, gratia plena
T:SATB a cappella
%%score [ 1 2 3 4 ]
L:1/8
Q:1/4=120
M:2/2
K:C
V:1 treble nm="SUPERIUS (Soprano)"
V:2 treble nm="ALTUS (Alto)"
V:3 treble-8 nm="BASSUS I (Tenor)"
V:4 bass nm="BASSUS II (Bass)"
V:1
 E8 | G4 G4 | A6 GF | G8 | E6 F2 | G4 G4 | A8 | z4 D4 | F4 G3 A | B2 A4 G2- | G2 FE F3 E | %11
w: A-|ve Ma-|ri- * *|a,|gra- ti|a ple-|na,|Do-|mi- nus _|_ te- *||
 C2 c3 B G2 | c2 B3 A A2- | A2 G2 A4 | z2 G2 A2 c2- | c2 B2 c4 | z8 | G3 A B2 A2- | A2 GF E3 F | %19
w: cum, te- * *|cum in _ cor-|* * de,|te- cum in|_ ven- tre,||te- * * cum|_ _ _ in _|
 G2 A4 G2 | A4 z2 A2 | G4 F4 | E4 z4 | F4 G4 | A6 GF | G3 A F4 | E2 A3 G G2- | G2 F2 G4 | %28
w: _ u- te-|ro. O|Ma- ri-|a,|O Ma-|ri- * *|||* * a,|
 z2 A2 A2 A2 | c6 BA | G4 E4 | F6 E2 | D2 C4 B,2 | C4 G4 | A4 c4- | c2 B2 A4- | A2 G2 A2 B2 | %37
w: ge- ni- trix|De- * *|i: O-|ra pro|no- * *|bis, O-|ra pro|_ _ no-||
 c6 B2 | A2 GF G4 | A6 G2 | F2 E2 F4- | F2 E2 D4 | C8- | C8 |] %44
w: |* * * bis,|O- *|ra pro no-||bis.|_|
V:2
 z8 | z8 | A,8 | B,4 B,4 | C8 | D8 | z4 A,4 | B,4 B,4 | C8 | D4 B,4 | C2 C2 D4 | E4 z4 | z8 | %13
w: ||A-|ve Ma-|ri-|a,|gra-|ti- a|ple-|na, Do-|mi- nus te-|cum,||
 z4 F4- | F2 E2 C4 | D4 E4 | z8 | z4 F4- | F2 E2 C4 | D4 E4 | A,4 A,2 A,2 | B,2 C2 D4 | z4 C4 | %23
w: te-|* cum in|cor- de,||te-|* cum in|ven- tre,|te- cum in|u- te- ro.|O|
 D4 E4 | A,8 | z8 | z4 C4 | D4 E4 | A,4 C2 D2 | E4 F4 | E4 z4 | z8 | F8 | E4 C4- | C2 D2 E4 | F8 | %36
w: Ma- ri-|a,||O|Ma- ri-|a, ge- ni-|trix De-|i:||O-|ra pro|_ _ no-|bis,|
 z4 F4 | E4 C4- | C2 D2 E4 | A,8- | A,8- | A,8- | A,8- | A,8 |] %44
w: O-|ra pro|_ _ no-|bis.|_||||
V:3
 z8 | B8 | c4 d4 | e8 | A4 z4 | B6 B2 | c4 d4 | e4 z4 | A4 G2 G2 | F4 E4 | z4 D4 | A3 B cd e2- | %12
w: |A-|ve Ma-|ri-|a,|gra- ti-|a ple-|na,|Do- mi- nus|te- cum,|Te-|cum _ _ _ _|
 e2 d2 c2 BA | B4 z2 A2 | B2 c2 A4 | G6 A2 | c2 B3 A d2- | d2 c2 d2 A2 | c3 d e2 c2 | B2 A2 B4 | %20
w: _ in cor- * *|de, te-|cum in ven-|||* * tre, te-|cum _ _ in|u- te- ro.|
 z2 c2 d4 | e4 A2 B2 | c3 d e4 | z4 c4- | c4 d4 | e4 A3 B | cd c3 B G2 | A4 z4 | F6 ED | %29
w: O Ma-|ri- * *|* * a,|O|_ Ma-|ri- * *||a,|O _ _|
 A3 G A2 B2 | c3 B G2 A2- | AG B2 A4 | z4 F4 | G6 E2 | F4 G4 | z2 d4 c2 | d2 G2 d4 | c3 d e4 | %38
w: Ma- * * *|ri- * * *|* * * a,|O-|ra pro|no- bis,|O- *|ra pro no-||
 A4 B4 | z2 c4 c2 | d2 e2 c4 | z4 F4 | F2 E2 F4 | E8 |] %44
w: * bis,|O- ra|pro no- bis,|O-|ra pro no-|bis.|
V:4
 A,8 | G,4 G,4 | F,8 | E,8 | z4 A,4 | G,4 G,4 | F,8 | E,4 G,4 | F,2 F,2 E,4 | D,4 z4 | z8 | %11
w: A-|ve Ma-|ri-|a,|gra-|ti- a|ple-|na, Do-|mi- nus te-|cum,||
 z4 C,4- | C,2 D,2 F,4 | E,4 D,4 | z8 | z4 C,4- | C,2 D,2 F,4 | E,4 D,4 | A,4 A,2 A,2 | %19
w: te-|* cum in|cor- de,||te-|* cum in|ven- tre,|te- cum in|
 G,2 F,2 E,4 | z4 F,4 | E,4 D,4 | A,8 | z8 | z4 F,4 | E,4 D,4 | A,4 F,2 E,2 | D,4 C,4 | D,4 z4 | %29
w: u- te- ro.|O|Ma- ri-|a,||O|Ma- ri-|a, ge- ni-|trix De-|i:|
 z8 | C,8 | D,4 F,4- | F,2 E,2 D,4 | C,8 | z4 C,4 | D,4 F,4- | F,2 E,2 D,4 | A,6 G,2 | F,4 E,4 | %39
w: |O-|ra pro|_ _ no-|bis,|O-|ra pro|_ _ no-||* bis,|
 F,6 E,2 | D,2 C,2 F,3 E, | D,2 C,2 D,4 | A,,8- | A,,8 |] %44
w: O- *|ra pro no- *||bis.|_|

